groups/alkenes/octatetraene.svg

<svg height="256" viewBox="0 0 256 256" width="256" xmlns="http://www.w3.org/2000/svg"><path d="m0 0h256v256h-256z" fill="#fff"/><g fill="none" stroke-width="2"><path d="m235.5 124.4-25.1 14.6" stroke="#000"/><path d="m210.4 139-25.1-14.5" stroke="#000"/><path d="m210.4 134-22.9-13.3" stroke="#000"/><path d="m185.3 124.5-25.1 14.5" stroke="#000"/><path d="m160.2 139-25.2-14.5" stroke="#000"/><path d="m160.2 134-23-13.2" stroke="#000"/><path d="m135 124.5-25.1 14.6" stroke="#000"/><path d="m109.9 139.1-25.1-14.5" stroke="#000"/><path d="m109.9 134-23-13.2" stroke="#000"/><path d="m84.8 124.6-25.1 14.5" stroke="#000"/><path d="m59.7 139.1-19-10.9" stroke="#000"/><path d="m59.7 134.1-16.8-9.7" stroke="#000"/><path d="m211.7 138.3-1.3.7-1.2-.7" stroke="#000" stroke-miterlimit="10"/><path d="m186.5 125.2-1.2-.7-1.3.7" stroke="#000" stroke-miterlimit="10"/><path d="m161.4 138.3-1.2.7-1.3-.7" stroke="#000" stroke-miterlimit="10"/><path d="m136.3 125.3-1.3-.8-1.2.8" stroke="#000" stroke-miterlimit="10"/><path d="m111.2 138.3-1.3.8-1.2-.8" stroke="#000" stroke-miterlimit="10"/><path d="m86 125.3-1.2-.7-1.3.7" stroke="#000" stroke-miterlimit="10"/><path d="m60.9 138.4-1.2.7-1-.6" stroke="#000" stroke-miterlimit="10"/><path d="m228.27 111.892c-.942.545-.215 1.801.727 1.256.941-.545 1.668.711.726 1.256s-.215 1.8.727 1.256c.941-.545 1.668.71.726 1.255s-.215 1.801.727 1.256c.941-.545 1.668.711.726 1.256s-.215 1.8.727 1.255c.941-.544 1.668.711.726 1.256s-.215 1.801.727 1.256c.941-.545 1.668.711.726 1.256-.942.544-.215 1.8.727 1.255.941-.545 1.668.711.726 1.256s-.215 1.8.727 1.256c.941-.545 1.668.71.726 1.255s-.215 1.801.727 1.256c.941-.545 1.668.711.726 1.256s-.215 1.8.727 1.255c.941-.544 1.668.711.726 1.256s-.215 1.801.727 1.256c.941-.545 1.668.711.726 1.256" stroke="#7f7f7f"/></g><text font-family="sans-serif" font-size="17" x="12.8" y="131.4">H</text><text font-family="sans-serif" font-size="11" x="24.8" y="138.4">2</text><text font-family="sans-serif" font-size="17" x="30.4" y="131.4">C</text><text fill="#7f7fff" font-family="sans-serif" font-size="8" x="135.7" y="143.7">(</text><text fill="#7f7fff" font-family="sans-serif" font-size="8" x="138.7" y="143.7">E</text><text fill="#7f7fff" font-family="sans-serif" font-size="8" x="144.7" y="143.7">)</text><text fill="#7f7fff" font-family="sans-serif" font-size="8" x="85.5" y="143.7">(</text><text fill="#7f7fff" font-family="sans-serif" font-size="8" x="88.5" y="143.7">E</text><text fill="#7f7fff" font-family="sans-serif" font-size="8" x="94.5" y="143.7">)</text></svg>

<?xml version='1.0' encoding='iso-8859-1'?>
<svg version='1.1' baseProfile='full'
              xmlns='http://www.w3.org/2000/svg'
                      xmlns:rdkit='http://www.rdkit.org/xml'
                      xmlns:xlink='http://www.w3.org/1999/xlink'
                  xml:space='preserve'
width='256px' height='256px' viewBox='0 0 256 256'>
<!-- END OF HEADER -->
<rect style='opacity:1.0;fill:#FFFFFF;stroke:none' width='256.0' height='256.0' x='0.0' y='0.0'> </rect>
<path class='bond-0 atom-0 atom-1' d='M 235.5,124.4 L 210.4,139.0' style='fill:none;fill-rule:evenodd;stroke:#000000;stroke-width:2.0px;stroke-linecap:butt;stroke-linejoin:miter;stroke-opacity:1' />
<path class='bond-1 atom-1 atom-2' d='M 210.4,139.0 L 185.3,124.5' style='fill:none;fill-rule:evenodd;stroke:#000000;stroke-width:2.0px;stroke-linecap:butt;stroke-linejoin:miter;stroke-opacity:1' />
<path class='bond-1 atom-1 atom-2' d='M 210.4,134.0 L 187.5,120.7' style='fill:none;fill-rule:evenodd;stroke:#000000;stroke-width:2.0px;stroke-linecap:butt;stroke-linejoin:miter;stroke-opacity:1' />
<path class='bond-2 atom-2 atom-3' d='M 185.3,124.5 L 160.2,139.0' style='fill:none;fill-rule:evenodd;stroke:#000000;stroke-width:2.0px;stroke-linecap:butt;stroke-linejoin:miter;stroke-opacity:1' />
<path class='bond-3 atom-3 atom-4' d='M 160.2,139.0 L 135.0,124.5' style='fill:none;fill-rule:evenodd;stroke:#000000;stroke-width:2.0px;stroke-linecap:butt;stroke-linejoin:miter;stroke-opacity:1' />
<path class='bond-3 atom-3 atom-4' d='M 160.2,134.0 L 137.2,120.8' style='fill:none;fill-rule:evenodd;stroke:#000000;stroke-width:2.0px;stroke-linecap:butt;stroke-linejoin:miter;stroke-opacity:1' />
<path class='bond-4 atom-4 atom-5' d='M 135.0,124.5 L 109.9,139.1' style='fill:none;fill-rule:evenodd;stroke:#000000;stroke-width:2.0px;stroke-linecap:butt;stroke-linejoin:miter;stroke-opacity:1' />
<path class='bond-5 atom-5 atom-6' d='M 109.9,139.1 L 84.8,124.6' style='fill:none;fill-rule:evenodd;stroke:#000000;stroke-width:2.0px;stroke-linecap:butt;stroke-linejoin:miter;stroke-opacity:1' />
<path class='bond-5 atom-5 atom-6' d='M 109.9,134.0 L 86.9,120.8' style='fill:none;fill-rule:evenodd;stroke:#000000;stroke-width:2.0px;stroke-linecap:butt;stroke-linejoin:miter;stroke-opacity:1' />
<path class='bond-6 atom-6 atom-7' d='M 84.8,124.6 L 59.7,139.1' style='fill:none;fill-rule:evenodd;stroke:#000000;stroke-width:2.0px;stroke-linecap:butt;stroke-linejoin:miter;stroke-opacity:1' />
<path class='bond-7 atom-7 atom-8' d='M 59.7,139.1 L 40.7,128.2' style='fill:none;fill-rule:evenodd;stroke:#000000;stroke-width:2.0px;stroke-linecap:butt;stroke-linejoin:miter;stroke-opacity:1' />
<path class='bond-7 atom-7 atom-8' d='M 59.7,134.1 L 42.9,124.4' style='fill:none;fill-rule:evenodd;stroke:#000000;stroke-width:2.0px;stroke-linecap:butt;stroke-linejoin:miter;stroke-opacity:1' />
<path d='M 211.7,138.3 L 210.4,139.0 L 209.2,138.3' style='fill:none;stroke:#000000;stroke-width:2.0px;stroke-linecap:butt;stroke-linejoin:miter;stroke-miterlimit:10;stroke-opacity:1;' />
<path d='M 186.5,125.2 L 185.3,124.5 L 184.0,125.2' style='fill:none;stroke:#000000;stroke-width:2.0px;stroke-linecap:butt;stroke-linejoin:miter;stroke-miterlimit:10;stroke-opacity:1;' />
<path d='M 161.4,138.3 L 160.2,139.0 L 158.9,138.3' style='fill:none;stroke:#000000;stroke-width:2.0px;stroke-linecap:butt;stroke-linejoin:miter;stroke-miterlimit:10;stroke-opacity:1;' />
<path d='M 136.3,125.3 L 135.0,124.5 L 133.8,125.3' style='fill:none;stroke:#000000;stroke-width:2.0px;stroke-linecap:butt;stroke-linejoin:miter;stroke-miterlimit:10;stroke-opacity:1;' />
<path d='M 111.2,138.3 L 109.9,139.1 L 108.7,138.3' style='fill:none;stroke:#000000;stroke-width:2.0px;stroke-linecap:butt;stroke-linejoin:miter;stroke-miterlimit:10;stroke-opacity:1;' />
<path d='M 86.0,125.3 L 84.8,124.6 L 83.5,125.3' style='fill:none;stroke:#000000;stroke-width:2.0px;stroke-linecap:butt;stroke-linejoin:miter;stroke-miterlimit:10;stroke-opacity:1;' />
<path d='M 60.9,138.4 L 59.7,139.1 L 58.7,138.5' style='fill:none;stroke:#000000;stroke-width:2.0px;stroke-linecap:butt;stroke-linejoin:miter;stroke-miterlimit:10;stroke-opacity:1;' />
<path class='atom-1' d='M228.27,111.892 C227.328,112.437 228.055,113.693 228.997,113.148 C229.938,112.603 230.665,113.859 229.723,114.404 C228.781,114.949 229.508,116.204 230.45,115.66 C231.391,115.115 232.118,116.37 231.176,116.915 C230.234,117.46 230.961,118.716 231.903,118.171 C232.844,117.626 233.571,118.882 232.629,119.427 C231.687,119.972 232.414,121.227 233.356,120.682 C234.297,120.138 235.024,121.393 234.082,121.938 C233.14,122.483 233.867,123.739 234.809,123.194 C235.75,122.649 236.477,123.905 235.535,124.45 C234.593,124.994 235.32,126.25 236.262,125.705 C237.203,125.16 237.93,126.416 236.988,126.961 C236.046,127.506 236.773,128.761 237.715,128.217 C238.656,127.672 239.383,128.927 238.441,129.472 C237.499,130.017 238.226,131.273 239.168,130.728 C240.109,130.183 240.836,131.439 239.894,131.984 C238.952,132.529 239.679,133.784 240.621,133.239 C241.562,132.695 242.289,133.95 241.347,134.495 C240.405,135.04 241.132,136.296 242.074,135.751 C243.015,135.206 243.742,136.462 242.8,137.007' style='fill:none;stroke:#7F7F7F;stroke-width:2.0px;stroke-linecap:butt;stroke-linejoin:miter;stroke-opacity:1' />
<text x='12.8' y='131.4' class='atom-8' style='font-size:17px;font-style:normal;font-weight:normal;fill-opacity:1;stroke:none;font-family:sans-serif;text-anchor:start;fill:#000000' >H</text>
<text x='24.8' y='138.4' class='atom-8' style='font-size:11px;font-style:normal;font-weight:normal;fill-opacity:1;stroke:none;font-family:sans-serif;text-anchor:start;fill:#000000' >2</text>
<text x='30.4' y='131.4' class='atom-8' style='font-size:17px;font-style:normal;font-weight:normal;fill-opacity:1;stroke:none;font-family:sans-serif;text-anchor:start;fill:#000000' >C</text>
<text x='135.7' y='143.7' class='note' style='font-size:8px;font-style:normal;font-weight:normal;fill-opacity:1;stroke:none;font-family:sans-serif;text-anchor:start;fill:#7F7FFF' >(</text>
<text x='138.7' y='143.7' class='note' style='font-size:8px;font-style:normal;font-weight:normal;fill-opacity:1;stroke:none;font-family:sans-serif;text-anchor:start;fill:#7F7FFF' >E</text>
<text x='144.7' y='143.7' class='note' style='font-size:8px;font-style:normal;font-weight:normal;fill-opacity:1;stroke:none;font-family:sans-serif;text-anchor:start;fill:#7F7FFF' >)</text>
<text x='85.5' y='143.7' class='note' style='font-size:8px;font-style:normal;font-weight:normal;fill-opacity:1;stroke:none;font-family:sans-serif;text-anchor:start;fill:#7F7FFF' >(</text>
<text x='88.5' y='143.7' class='note' style='font-size:8px;font-style:normal;font-weight:normal;fill-opacity:1;stroke:none;font-family:sans-serif;text-anchor:start;fill:#7F7FFF' >E</text>
<text x='94.5' y='143.7' class='note' style='font-size:8px;font-style:normal;font-weight:normal;fill-opacity:1;stroke:none;font-family:sans-serif;text-anchor:start;fill:#7F7FFF' >)</text>
</svg>
